X:140
T: Fische verkaufen
N: A0506A
O: Europa, Mitteleuropa, Deutschland
N: N. Zange, 1620 Lied 25.
R: Romanze, Ballade, Lied, Kinderlied
M: 4/4
L: 1/4
K: F
FGA2 | c2A2 |
c2A2 | cBAG | A2F2 |
ABcB | AGF2 | G2F2 |
BAGC | F2F2

@@@ Tune index: 453
